synths/sCHF.svg

<svg width="480" height="480" viewBox="0 0 480 480" fill="none" xmlns="http://www.w3.org/2000/svg">
<mask id="mask0-622169" mask-type="alpha" maskUnits="userSpaceOnUse" x="0" y="0" width="480" height="480">
<circle cx="240" cy="240" r="240" fill="url(#paint0_linear-687937)"/>
</mask>
<g mask="url(#mask0-622169)">
<circle cx="240" cy="240" r="240" fill="#31D8A4"/>
<circle cx="240" cy="240" r="208" fill="white"/>
</g>
<circle cx="240" cy="240" r="184" fill="#0E052F"/>
<path d="M192.928 326V295.28H175.408V274.4H192.928V154.64H295.888V184.4H228.688V223.76H291.568V253.52H228.688V274.4H265.648V295.28H228.688V326H192.928Z" fill="white"/>
<defs>
<linearGradient id="paint0_linear-687937" x1="240" y1="0" x2="240" y2="701.818" gradientUnits="userSpaceOnUse">
<stop stop-color="#08021E"/>
<stop offset="1" stop-color="#1F0777"/>
</linearGradient>
</defs>
</svg>

<svg width="480" height="480" viewBox="0 0 480 480" fill="none" xmlns="http://www.w3.org/2000/svg"><mask id="mask0-622169" maskUnits="userSpaceOnUse" x="0" y="0" width="480" height="480"><circle cx="240" cy="240" r="240" fill="url(#paint0_linear-687937)"/></mask><g mask="url(#mask0-622169)"><circle cx="240" cy="240" r="240" fill="#31D8A4"/><circle cx="240" cy="240" r="208" fill="#fff"/></g><circle cx="240" cy="240" r="184" fill="#0E052F"/><path d="M192.928 326v-30.72h-17.52V274.4h17.52V154.64h102.96v29.76h-67.2v39.36h62.88v29.76h-62.88v20.88h36.96v20.88h-36.96V326h-35.76z" fill="#fff"/><defs><linearGradient id="paint0_linear-687937" x1="240" y1="0" x2="240" y2="701.818" gradientUnits="userSpaceOnUse"><stop stop-color="#08021E"/><stop offset="1" stop-color="#1F0777"/></linearGradient></defs></svg>
